X: 266
T:Ave virgo sanctissima
N: Derived from Jos2312-Ave_virgo_sanctissima.krn
C: Josquin des Prez
%%abc-version 2.0
%%abcx-abcm2ps-target-version 5.9.1 (29 Sep 2008)
%%abc-creator hum2abc beta
%%abcx-conversion-date 2019/02/12 16:15:51
%%abc-edited-by Jesse Rodin
%%abc-edited-by Will Watson 30/06/2011
%%abcx-initial-encoding-date 2011/06/30/
%%humdrum-veritas 2930584927
%%humdrum-veritas-data 2835219662
%%linebreak <none>
%%barnumbers 0
L: 1/4
M: 3/1
Q: 1/2=120
V: 1 clef=treble-8
V: 2 clef=treble-8
V: 3 clef=treble-8
V: 4 clef=treble-8
V: 5 clef=treble-8
K: C
[V:1] C12 | 
[V:2] z12 | 
[V:3] z12 | 
[V:4] z12 | 
[V:5] z12 | 
[V:1] D8D4 | 
[V:2] z12 | 
[V:3] z12 | 
[V:4] z12 | 
[V:5] z12 | 
[V:1] C4G2E3FG2 | 
[V:2] C12 | 
[V:3] z12 | 
[V:4] z12 | 
[V:5] z12 | 
[V:1] F2A3Gc4B2 | 
[V:2] D8D4 | 
[V:3] z12 | 
[V:4] z12 | 
[V:5] z12 | 
[V:1] c8z4 | 
[V:2] C4G2E3FG2 | 
[V:3] C12 | 
[V:4] z12 | 
[V:5] z12 | 
[V:1] z4d4d4 | 
[V:2] F2A3Gc4B2 | 
[V:3] D8D4 | 
[V:4] z12 | 
[V:5] z12 | 
[V:1] e8e4 | 
[V:2] c8z4 | 
[V:3] C4G2E3FG2 | 
[V:4] C12 | 
[V:5] z12 | 
[V:1] f8F4 | 
[V:2] z4d4d4 | 
[V:3] F2A3Gc4B2 | 
[V:4] D8D4 | 
[V:5] z12 | 
[V:1] G4E2G3FE2 | 
[V:2] e8e4 | 
[V:3] c8z4 | 
[V:4] C4G2E3FG2 | 
[V:5] C12 | 
[V:1] D4F8 | 
[V:2] f8F4 | 
[V:3] z4d4d4 | 
[V:4] F2A3Gc4B2 | 
[V:5] D8D4 | 
[V:1] E4C4z4 | 
[V:2] G4E2G3FE2 | 
[V:3] e8e4 | 
[V:4] c8z4 | 
[V:5] C4G2E3FG2 | 
[V:1] z2F3EDCD4 | 
[V:2] D4F8 | 
[V:3] f8F4 | 
[V:4] z4d4d4 | 
[V:5] F2A3Gc4B2 | 
[V:1] C4z2c2B2c2 | 
[V:2] E4C4z4 | 
[V:3] G4E2G3FE2 | 
[V:4] e8e4 | 
[V:5] c8z4 | 
[V:1] d4z2B2A2B2 | 
[V:2] z2F3EDCD4 | 
[V:3] D4F8 | 
[V:4] f8F4 | 
[V:5] z4d4d4 | 
[V:1] c4z4z4 | 
[V:2] C4z2c2B2c2 | 
[V:3] E4C4z4 | 
[V:4] G4E2G3FE2 | 
[V:5] e8e4 | 
[V:1] A2B2A2e4d2 | 
[V:2] d4z2B2A2B2 | 
[V:3] z2F3EDCD4 | 
[V:4] D4F8 | 
[V:5] f8F4 | 
[V:1] e8e4 | 
[V:2] c4z4z4 | 
[V:3] C4z2c2B2c2 | 
[V:4] E4C4z4 | 
[V:5] G4E2G3FE2 | 
[V:1] z4A4F4 | 
[V:2] A2B2A2e4d2 | 
[V:3] d4z2B2A2B2 | 
[V:4] z2F3EDCD4 | 
[V:5] D4F8 | 
[V:1] z2G3FEDE4 | 
[V:2] e8e4 | 
[V:3] c4z4z4 | 
[V:4] C4z2c2B2c2 | 
[V:5] E4C4z4 | 
[V:1] D4z4F4 | 
[V:2] z4A4F4 | 
[V:3] A2B2A2e4d2 | 
[V:4] d4z2B2A2B2 | 
[V:5] z2F3EDCD4 | 
[V:1] E2C3DEFG4 | 
[V:2] z2G3FEDE4 | 
[V:3] e8e4 | 
[V:4] c4z4z4 | 
[V:5] C4z2c2B2c2 | 
[V:1] F4z4A4 | 
[V:2] D4z4F4 | 
[V:3] z4A4F4 | 
[V:4] A2B2A2e4d2 | 
[V:5] d4z2B2A2B2 | 
[V:1] G2E3FGAB2c2 | 
[V:2] E2C3DEFG4 | 
[V:3] z2G3FEDE4 | 
[V:4] e8e4 | 
[V:5] c4z4z4 | 
[V:1] d6cBA4 | 
[V:2] F4z4A4 | 
[V:3] D4z4F4 | 
[V:4] z4A4F4 | 
[V:5] A2B2A2e4d2 | 
[V:1] B2c4d4c2 | 
[V:2] G2E3FGAB2c2 | 
[V:3] E2C3DEFG4 | 
[V:4] z2G3FEDE4 | 
[V:5] e8e4 | 
[V:1] f6e4d2 | 
[V:2] d6cBA4 | 
[V:3] F4z4A4 | 
[V:4] D4z4F4 | 
[V:5] z4A4F4 | 
[V:1] e6dcB2G2 | 
[V:2] B2c4d4c2 | 
[V:3] G2E3FGAB2c2 | 
[V:4] E2C3DEFG4 | 
[V:5] z2G3FEDE4 | 
[V:1] A4D8 | 
[V:2] f6e4d2 | 
[V:3] d6cBA4 | 
[V:4] F4z4A4 | 
[V:5] D4z4F4 | 
[V:1] z2G4F2E4 | 
[V:2] e6dcB2G2 | 
[V:3] B2c4d4c2 | 
[V:4] G2E3FGAB2c2 | 
[V:5] E2C3DEFG4 | 
[V:1] D8z4 | 
[V:2] A4D8 | 
[V:3] f6e4d2 | 
[V:4] d6cBA4 | 
[V:5] F4z4A4 | 
[V:1] z12 | 
[V:2] z2G4F2E4 | 
[V:3] e6dcB2G2 | 
[V:4] B2c4d4c2 | 
[V:5] G2E3FGAB2c2 | 
[V:1] z2A4G2F4 | 
[V:2] D8z4 | 
[V:3] A4D8 | 
[V:4] f6e4d2 | 
[V:5] d6cBA4 | 
[V:1] E8z4 | 
[V:2] z12 | 
[V:3] z2G4F2E4 | 
[V:4] e6dcB2G2 | 
[V:5] B2c4d4c2 | 
[V:1] z2F3EDCD4 | 
[V:2] z2A4G2F4 | 
[V:3] D8z4 | 
[V:4] A4D8 | 
[V:5] f6e4d2 | 
[V:1] C4z4c4 | 
[V:2] E8z4 | 
[V:3] z12 | 
[V:4] z2G4F2E4 | 
[V:5] e6dcB2G2 | 
[V:1] d4d4d4 | 
[V:2] z2F3EDCD4 | 
[V:3] z2A4G2F4 | 
[V:4] D8z4 | 
[V:5] A4D8 | 
[V:1] e4e2e2e4 | 
[V:2] C4z4c4 | 
[V:3] E8z4 | 
[V:4] z12 | 
[V:5] z2G4F2E4 | 
[V:1] f3ed2c4B2 | 
[V:2] d4d4d4 | 
[V:3] z2F3EDCD4 | 
[V:4] z2A4G2F4 | 
[V:5] D8z4 | 
[V:1] c6BAG4 | 
[V:2] e4e2e2e4 | 
[V:3] C4z4c4 | 
[V:4] E8z4 | 
[V:5] z12 | 
[V:1] F2D3CDEF4 | 
[V:2] f3ed2c4B2 | 
[V:3] d4d4d4 | 
[V:4] z2F3EDCD4 | 
[V:5] z2A4G2F4 | 
[V:1] G2A4GFE4 | 
[V:2] c6BAG4 | 
[V:3] e4e2e2e4 | 
[V:4] C4z4c4 | 
[V:5] E8z4 | 
[V:1] D2A4G2F4 | 
[V:2] F2D3CDEF4 | 
[V:3] f3ed2c4B2 | 
[V:4] d4d4d4 | 
[V:5] z2F3EDCD4 | 
[V:1] E4C8 | 
[V:2] G2A4GFE4 | 
[V:3] c6BAG4 | 
[V:4] e4e2e2e4 | 
[V:5] C4z4c4 | 
[V:1] z2F4E2D4 | 
[V:2] D2A4G2F4 | 
[V:3] F2D3CDEF4 | 
[V:4] f3ed2c4B2 | 
[V:5] d4d4d4 | 
[V:1] !fermata!C2C3DEFGABc | 
[V:2] E4C8 | 
[V:3] G2A4GFE4 | 
[V:4] c6BAG4 | 
[V:5] e4e2e2e4 | 
[V:1] d4z4d4 | 
[V:2] z2F4E2D4 | 
[V:3] D2A4G2F4 | 
[V:4] F2D3CDEF4 | 
[V:5] f3ed2c4B2 | 
[V:1] !fermata!e3de2f4e2 | 
[V:2] C2C3DEFGABc | 
[V:3] E4C8 | 
[V:4] G2A4GFE4 | 
[V:5] c6BAG4 | 
[V:1] f3efedcB3A | 
[V:2] d4z4d4 | 
[V:3] z2F4E2D4 | 
[V:4] D2A4G2F4 | 
[V:5] F2D3CDEF4 | 
[V:1] !fermata!c6F2G4 | 
[V:2] e3de2f4e2 | 
[V:3] C2C3DEFGABc | 
[V:4] E4C8 | 
[V:5] G2A4GFE4 | 
[V:1] A4D2E2F4 | 
[V:2] f3efedcB3A | 
[V:3] d4z4d4 | 
[V:4] z2F4E2D4 | 
[V:5] D2A4G2F4 | 
[V:1] !fermata!G4C2D2E4 | 
[V:2] c6F2G4 | 
[V:3] e3de2f4e2 | 
[V:4] C2C3DEFGABc | 
[V:5] E4C8 | 
[V:1] D4z2G2F4 | 
[V:2] A4D2E2F4 | 
[V:3] f3efedcB3A | 
[V:4] d4z4d4 | 
[V:5] z2F4E2D4 | 
[V:1] E12 |]  
[V:2] !fermata!G12 |]  
[V:3] !fermata!c12 |]  
[V:4] !fermata!e12 |]  
[V:5] !fermata!C12 |]  



